X:18
T:Bonnie Kate
Z: id:dc-reel-18
M:C
L:1/8
K:D Major
dB|A2dB ABAF|DFAF EA,CE|DFAF GBed|cABc d2:|!
fg|a2fd fafd|gfed cdef|gfef gbag|fgec d2:|!

